dist/svg/folder-add.svg

<!-- Generated by Trend Micro Style Portal -->
<svg version="1.1" xmlns="http://www.w3.org/2000/svg" width="16" height="16" viewBox="0 0 16 16">
  <title>folder-add</title>
  <path fill="rgb(34,34,34)" d="M16 11h-3v-3h-2v3h-3v2h3v3h2v-3h3v-2z"></path>
  <path fill="rgb(34,34,34)" d="M16 3.93c-0.005-0.516-0.424-0.932-0.94-0.932-0.021 0-0.042 0.001-0.063 0.002l0.003-0h-7l-1-2h-6c-0.018-0.001-0.039-0.002-0.060-0.002-0.516 0-0.935 0.416-0.94 0.931v3.070h16v-1.070z"></path>
  <path fill="rgb(34,34,34)" d="M7 15h-6c-0.559-0.033-1-0.494-1-1.058 0-0.004 0-0.008 0-0.012v0.001-7.93h16v1h-9v8z"></path>
  <path fill="rgb(34,34,34)" d="M7 7h3v3h-3v-3z"></path>
  <path fill="rgb(34,34,34)" d="M7 14h3v1h-3v-1z"></path>
  <path fill="rgb(34,34,34)" d="M14 6.99h1.99v3.010h-1.99v-3.010z"></path>
</svg>

<svg width="16" height="16" viewBox="0 0 16 16" fill="rgb(34, 34, 34)" xmlns="http://www.w3.org/2000/svg"><title>folder-add</title><path d="M16 11H13V8H11V11H8V13H11V16H13V13H16V11Z" fill="rgb(34, 34, 34)" fill-opacity="1.00"/><path d="M16 3.93C15.995 3.414 15.576 2.998 15.06 2.998C15.039 2.998 15.018 2.999 14.997 3H15H8L7 1H1C0.982 0.999001 0.961 0.998001 0.94 0.998001C0.424 0.998001 0.005 1.414 0 1.929V4.999H16V3.929V3.93Z" fill="rgb(34, 34, 34)" fill-opacity="1.00"/><path d="M7 15H1C0.441 14.967 0 14.506 0 13.942C0 13.938 0 13.934 0 13.93V6.001H16V7.001H7V15Z" fill="rgb(34, 34, 34)" fill-opacity="1.00"/><path d="M7 7H10V10H7V7Z" fill="rgb(34, 34, 34)" fill-opacity="1.00"/><path d="M7 14H10V15H7V14Z" fill="rgb(34, 34, 34)" fill-opacity="1.00"/><path d="M14 6.99H15.99V10H14V6.99Z" fill="rgb(34, 34, 34)" fill-opacity="1.00"/></svg>
